X:410
T:Sleepy-Eyed Joe
C:arr. Norman & Nancy Blake
N:Transcribed by Greg Rohrer
R:bluegrass
L:1/8
Q:1/4=190
M:2/4
K:E
z2 GF |: "E"EE [BG][eB] | [e2e2] [e2B2] | [ee][ee] [ee]g | b2 eg | "B"ag fe | 
df ec | Bc dc | BA GF | "E"EE [BG][eB] | [e2e2] [e2B2] | [ee][ee] [ee]g | b2 eg | 
"B"ag fe | dc Bc | BA GF |1 "E"E2 GF :|2 "E"E2 ec | "E"B2 e2 | [g2B2] gf | "A"e2 c2 | 
[a2c2] [a2c2] | {f}"E"g2 gg | {f}g2 gg | "B"fg fe | cB Ac | "E"B2 e2 | [g2B2] gf | 
"A"e2 c2 | [a2c2] [a2c2] | "B"Bc dB | cd ec | de fg | "E"e2 ec | B2 e2 | [g2B2] gf | 
"A"e2 c2 | [a2c2] [a2c2] | "E"[g2B2] [a2B2] | [b2B2] [g2B2] | "B"fg fe | cB Ac | 
"E"B2 e2 | [g2B2] gf | "A"e2 c2 | [a2c2] [a2c2] | "B"Bc dB | cd ec | de fg | "E"e4 | 


